X: 1619
T: Ruhumda Derin
C: Kemal Gürses
O: Turkey
F: http://compmusic.upf.edu/node/140
N: acemasiran--sarki--duyek--ruhumda_derin--kemal_gurses
N: makam= acemasiran
N: form= sarki
N: usul= duyek = 8/4
M: 8/4
L: 1/16
K: C _B   
Q: 1/4=168
%%MIDI tuningsystem comma53
z2 f2 f2 f2 f4 f4  | z2 ef gf ef a3g f3e  | \
w:   |   | 
d4 cd ef e8  | 
w:   | 
e2 de fe de g3f e3d  | c3B AB cA B8  | \
w:   |   | 
zA Bc d2 cB c2 BA B2 AG  | 
w:   | 
A2 GF G2 FE F8  | z2 f4 f2 f4 f4  | f2 gf e2 f2 g2 gf e4  | 
w:   |   |   | 
z2 e4 e2 e4 e4  | e2 fe d2 f2 e3d c4  | \
w:   |   | 
z2 f4 f2 f4 f4  | f2 gf e2 f2 g2 gf e4  | 
w:   |   | 
z2 e4 e2 e4 e4  | e2 fe d2 f2 e3d c4  | \
w:   |   | 
z2 d4 e2 f2 ef g2 a2  | 
w:   | 
a2 b2 a2 g2 f3e d4  | z2 a4 a2 a4 a4  | a16  | \
w:   |   |   | 
z2 b3/2a/ g2 z2 ^fg ab ag =fg  | 
w:   | 
fe d2 g4 g2 g4 g4 g16 z2 a3/2g/ f2 z2 ef ga gf  | \
w:   | 
ef ed c2 f4 f2 fg e2  | 
w:   | 
ef d2 c2 d2 c2 d2 _e2 d2  | c2 B2 A2 A2 B2 c2 d2 c2  | \
w:   |   | 
B2 A2 G2 AG F2 E2 F2 GA  | 
w:   | 
Bc de f2 f4 f2 fg e2  | ef d2 c2 d2 c2 d2 _e2 d2  | \
w:   |   | 
c2 B2 A2 A2 B2 c2 d2 c2  | 
w:   | 
B2 A2 G2 AG F2 E2 F4  | F4 z2 f2 f2 f2 f4  | \
w:   |   | 
f4 z2 ef gf ef a3g  | 
w:   | 
f3e d4 cd ef e8 e2 de fe de g3f  | \
w:   | 
e3d c3B AB cA B8 zA Bc d2 cB c2 BA  | 
w:   | 
B2 AG A2 GF G2 FE F8 z2 f4 f2 f4  | \
w:   | 
f4 f2 gf e2 f2 g2 gf  | 
w:   | 
e4 z2 e4 e2 e4  | e4 e2 fe d2 f2 e3d  | \
w:   |   | 
c4 z2 f4 f2 f4  | f4 f2 gf e2 f2 g2 gf  | 
w:   |   | 
e4 z2 e4 e2 e4  | e4 e2 fe d2 f2 e3d  | \
w:   |   | 
c4 z2 d4 e2 f2 ef  | g2 a2 a2 b2 a2 g2 f3e  | 
w:   |   | 
d4 z2 a4 a2 a4  | a4 a16 z2 b3/2a/ g2 z2 ^fg ab  | \
w:   |   | 
ag fg fe d2 g4 g2 g4 g4 g16 z2 a3/2g/ f2 z2 ef  | 
w:   | 
ga gf ef ed c2 f4 f2  | fg e2 ef d2 c2 d2 c2 d2  | 
w:   |   | 
_e2 d2 c2 B2 A2 A2 B2 c2  | d2 c2 B2 A2 G2 AG F2 E2  | \
w:   |   | 
F2 GA Bc de f2 f4 f2  | 
w:   | 
fg e2 ef d2 c2 d2 c2 d2  | _e2 d2 c2 B2 A2 A2 B2 c2  | \
w:   |   | 
d2 c2 B2 A2 G2 AG F2 E2  | 
w:   | 
F4 F4 |
w:   | 


